X: 302
T: Taiping nian
L: 1/8
M: 1/4
K: G
A A A B [I:setbarnb 1]| 
d g e d | 
d2B A | 
d2G B | 
A4 | 
A< A A B | 
d g e d | 
B d B A | 
d2G B | 
A4 | 
d2g e | 
d g e d | 
A BA2 | 
g B B3/ A/ | 
B/ A/G2E | 
D4 | 
E> G E G | 
A3B | 
d B A3/ G/ | 
G ED2 | 
G B A d | 
G E D B, | 
D3E | 
D4 |]

@@@ Tune index: 9176
